src/assets/icons/rollback.svg

<svg width="32" height="32" viewBox="0 0 32 32" fill="none" xmlns="http://www.w3.org/2000/svg">
<rect width="32" height="32" rx="10" fill="white"/>
<path d="M24.7801 15.5842C24.7887 20.3227 21.0188 24.1975 16.3962 24.2008C14.3996 24.2023 12.5657 23.4888 11.1246 22.2965C10.7498 21.9865 10.7218 21.4108 11.0623 21.0617L11.4435 20.671C11.7348 20.3724 12.1997 20.3398 12.5224 20.6022C13.5842 21.4659 14.9279 21.9814 16.3901 21.9814C19.8309 21.9814 22.615 19.1269 22.615 15.6004C22.615 12.0734 19.8303 9.21946 16.3901 9.21946C14.7387 9.21946 13.2388 9.87729 12.1251 10.9511L13.8421 12.7112C14.1831 13.0607 13.9416 13.6584 13.4594 13.6584H8.5413C8.24233 13.6584 8 13.41 8 13.1035V8.06212C8 7.5678 8.58304 7.32023 8.92406 7.66976L10.5944 9.38194C12.1006 7.90637 14.1421 7 16.3901 7C21.0185 7 24.7716 10.8418 24.7801 15.5842ZM18.6597 18.3163L18.992 17.8783C19.2674 17.5155 19.2036 16.9925 18.8496 16.7104L17.4727 15.6125V11.9938C17.4727 11.5341 17.1092 11.1615 16.6607 11.1615H16.1194C15.671 11.1615 15.3075 11.5341 15.3075 11.9938V16.6981L17.5203 18.4623C17.8743 18.7445 18.3844 18.6792 18.6597 18.3163Z" fill="#4FA1C1"/>
</svg>

<svg xmlns="http://www.w3.org/2000/svg" width="32" height="32" fill="none"><rect width="32" height="32" fill="#fff" rx="10"/><path fill="#4FA1C1" d="M24.78 15.584c.009 4.739-3.761 8.614-8.384 8.617a8.229 8.229 0 0 1-5.271-1.904.846.846 0 0 1-.063-1.235l.382-.391a.799.799 0 0 1 1.078-.069 6.105 6.105 0 0 0 3.868 1.38c3.44 0 6.225-2.855 6.225-6.382 0-3.527-2.785-6.38-6.225-6.38a6.123 6.123 0 0 0-4.265 1.731l1.717 1.76c.341.35.1.947-.383.947H8.541A.548.548 0 0 1 8 13.104V8.062c0-.494.583-.742.924-.392l1.67 1.712A8.255 8.255 0 0 1 16.39 7c4.628 0 8.382 3.842 8.39 8.584Zm-6.12 2.732.332-.438a.846.846 0 0 0-.142-1.168l-1.377-1.098v-3.618a.822.822 0 0 0-.812-.832h-.542a.822.822 0 0 0-.812.832v4.704l2.213 1.764a.799.799 0 0 0 1.14-.146Z"/></svg>
